X: 2
T: The Butcher's Fancy
R: jig
M: 6/8
L: 1/8
K: Gmaj
ded BAB|dBA A2 B|ded BAB|dBG GAB|ded ~B3|dBA A2 g|f/g/af gfe|1 dBG GAB:|dBG GBd||eAA fed|eAA ABd|eAA gfe|dBG GBd|eAA fed|eAA A2 g|f/g/af gfe|1 dBG GBd:|2 dBG GAB||


Tune 1003	Setting 1003

